images/preferences/2.svg

<svg width="52" height="52" viewBox="0 0 52 52" fill="none" xmlns="http://www.w3.org/2000/svg">
<path d="M46.9429 0H5.05705C2.26854 0 0 2.5997 0 5.79515V46.2048C0 49.4003 2.26854 52 5.05705 52H46.9429C49.7315 52 52 49.4003 52 46.2048V5.79515C52 2.5997 49.7315 0 46.9429 0ZM5.05705 3.49281H46.9429C48.0508 3.49281 48.9521 4.52563 48.9521 5.79515V13.7721H3.04789V5.79515C3.04789 4.52563 3.94925 3.49281 5.05705 3.49281ZM46.9429 48.5072H5.05705C3.94925 48.5072 3.04789 47.4744 3.04789 46.2048V17.265H48.9521V46.2048C48.9521 47.4744 48.0508 48.5072 46.9429 48.5072Z" fill="url(#paint0_linear)"/>
<path d="M7.65168 10.4944C8.49888 10.4944 9.18568 9.70732 9.18568 8.73645C9.18568 7.76557 8.49888 6.97852 7.65168 6.97852C6.80447 6.97852 6.11768 7.76557 6.11768 8.73645C6.11768 9.70732 6.80447 10.4944 7.65168 10.4944Z" fill="url(#paint1_linear)"/>
<path d="M13.8868 10.4944C14.734 10.4944 15.4208 9.70732 15.4208 8.73645C15.4208 7.76557 14.734 6.97852 13.8868 6.97852C13.0396 6.97852 12.3528 7.76557 12.3528 8.73645C12.3528 9.70732 13.0396 10.4944 13.8868 10.4944Z" fill="url(#paint2_linear)"/>
<path d="M20.411 10.4944C21.2582 10.4944 21.945 9.70732 21.945 8.73645C21.945 7.76557 21.2582 6.97852 20.411 6.97852C19.5637 6.97852 18.877 7.76557 18.877 8.73645C18.877 9.70732 19.5637 10.4944 20.411 10.4944Z" fill="url(#paint3_linear)"/>
<path d="M16.7105 27.9532C15.9146 27.64 15.0475 28.1252 14.7739 29.0372L14.1434 31.1391L13.4226 28.9807C13.0773 27.7239 11.1484 27.269 10.5581 29.0372L9.92756 31.1391L9.20673 28.9807C8.90591 28.0799 8.02466 27.6287 7.23871 27.9739C6.45266 28.3187 6.05928 29.3285 6.36011 30.2291L8.5811 36.8796C8.80716 37.5563 9.37376 38.0018 10.0042 38.0018C10.0129 38.0018 10.0218 38.0017 10.0306 38.0016C10.6715 37.9889 11.2371 37.5179 11.4455 36.8231L12.076 34.7211L12.7968 36.8796C13.0229 37.5563 13.5895 38.0018 14.2199 38.0018C14.2286 38.0018 14.2376 38.0017 14.2463 38.0016C14.8873 37.9889 15.4529 37.5179 15.6612 36.8231L17.656 30.1727C17.93 29.2605 17.5065 28.2669 16.7105 27.9532Z" fill="url(#paint4_linear)"/>
<path d="M30.7122 27.9532C29.9162 27.64 29.0493 28.1252 28.7756 29.0372L28.1451 31.1391L27.4243 28.9807C27.0783 27.7227 25.1488 27.2703 24.5598 29.0372L23.9293 31.1391L23.2084 28.9807C22.9076 28.0799 22.0265 27.6287 21.2404 27.9739C20.4544 28.3187 20.061 29.3285 20.3618 30.2291L22.5828 36.8796C22.8089 37.5563 23.3755 38.0018 24.0059 38.0018C24.0146 38.0018 24.0236 38.0017 24.0323 38.0016C24.6733 37.9889 25.2388 37.5179 25.4472 36.8231L26.0777 34.7211L26.7985 36.8796C27.0246 37.5563 27.5912 38.0018 28.2216 38.0018C28.2303 38.0018 28.2393 38.0017 28.248 38.0016C28.889 37.9889 29.4546 37.5179 29.663 36.8231L31.6577 30.1727C31.9317 29.2605 31.5082 28.2669 30.7122 27.9532Z" fill="url(#paint5_linear)"/>
<path d="M44.7108 27.9532C43.9149 27.64 43.0478 28.1252 42.7742 29.0372L42.1437 31.1391L41.4228 28.9807C41.0774 27.726 39.1533 27.2658 38.5583 29.0372L37.9278 31.1392L37.2069 28.9807C36.9061 28.0799 36.025 27.6287 35.2389 27.9739C34.4528 28.3187 34.0595 29.3285 34.3604 30.2291L36.5815 36.8796C36.8075 37.5563 37.3741 38.0018 38.0045 38.0018C38.0133 38.0018 38.0222 38.0017 38.0309 38.0016C38.6719 37.9889 39.2375 37.5179 39.4459 36.8231L40.0764 34.7211L40.7972 36.8796C41.0233 37.5563 41.5899 38.0018 42.2203 38.0018C42.229 38.0018 42.2379 38.0017 42.2467 38.0016C42.8876 37.9889 43.4532 37.5179 43.6616 36.8231L45.6563 30.1727C45.9301 29.2605 45.5067 28.2669 44.7108 27.9532Z" fill="url(#paint6_linear)"/>
<defs>
<linearGradient id="paint0_linear" x1="-6.5" y1="-8.13798" x2="63.1851" y2="72.2945" gradientUnits="userSpaceOnUse">
<stop stop-color="#1C2D5A"/>
<stop offset="1" stop-color="#4FC3DD" stop-opacity="0.96"/>
</linearGradient>
<linearGradient id="paint1_linear" x1="5.73418" y1="6.42828" x2="10.4942" y2="11.2226" gradientUnits="userSpaceOnUse">
<stop stop-color="#1C2D5A"/>
<stop offset="1" stop-color="#4FC3DD" stop-opacity="0.96"/>
</linearGradient>
<linearGradient id="paint2_linear" x1="11.9693" y1="6.42828" x2="16.7293" y2="11.2226" gradientUnits="userSpaceOnUse">
<stop stop-color="#1C2D5A"/>
<stop offset="1" stop-color="#4FC3DD" stop-opacity="0.96"/>
</linearGradient>
<linearGradient id="paint3_linear" x1="18.4935" y1="6.42828" x2="23.2535" y2="11.2226" gradientUnits="userSpaceOnUse">
<stop stop-color="#1C2D5A"/>
<stop offset="1" stop-color="#4FC3DD" stop-opacity="0.96"/>
</linearGradient>
<linearGradient id="paint4_linear" x1="4.82399" y1="26.2704" x2="18.0818" y2="43.589" gradientUnits="userSpaceOnUse">
<stop stop-color="#1C2D5A"/>
<stop offset="1" stop-color="#4FC3DD" stop-opacity="0.96"/>
</linearGradient>
<linearGradient id="paint5_linear" x1="18.8257" y1="26.2704" x2="32.0835" y2="43.589" gradientUnits="userSpaceOnUse">
<stop stop-color="#1C2D5A"/>
<stop offset="1" stop-color="#4FC3DD" stop-opacity="0.96"/>
</linearGradient>
<linearGradient id="paint6_linear" x1="32.8242" y1="26.2704" x2="46.082" y2="43.589" gradientUnits="userSpaceOnUse">
<stop stop-color="#1C2D5A"/>
<stop offset="1" stop-color="#4FC3DD" stop-opacity="0.96"/>
</linearGradient>
</defs>
</svg>

<svg width="52" height="52" fill="none" xmlns="http://www.w3.org/2000/svg"><path d="M46.943 0H5.057C2.269 0 0 2.6 0 5.795v40.41C0 49.4 2.269 52 5.057 52h41.886C49.73 52 52 49.4 52 46.205V5.795C52 2.6 49.731 0 46.943 0ZM5.057 3.493h41.886c1.108 0 2.01 1.033 2.01 2.302v7.977H3.047V5.795c0-1.27.901-2.302 2.01-2.302Zm41.886 45.014H5.057c-1.108 0-2.01-1.033-2.01-2.302v-28.94h45.905v28.94c0 1.27-.901 2.302-2.01 2.302Z" fill="url(#a)"/><path d="M7.652 10.494c.847 0 1.534-.787 1.534-1.758 0-.97-.687-1.757-1.534-1.757-.848 0-1.534.787-1.534 1.757 0 .971.686 1.758 1.534 1.758Z" fill="url(#b)"/><path d="M13.887 10.494c.847 0 1.534-.787 1.534-1.758 0-.97-.687-1.757-1.534-1.757s-1.534.787-1.534 1.757c0 .971.687 1.758 1.534 1.758Z" fill="url(#c)"/><path d="M20.411 10.494c.847 0 1.534-.787 1.534-1.758 0-.97-.687-1.757-1.534-1.757s-1.534.787-1.534 1.757c0 .971.687 1.758 1.534 1.758Z" fill="url(#d)"/><path d="M16.71 27.953c-.795-.313-1.663.172-1.936 1.084l-.63 2.102-.721-2.158c-.346-1.257-2.275-1.712-2.865.056l-.63 2.102-.721-2.158c-.301-.901-1.182-1.352-1.968-1.007-.786.345-1.18 1.354-.879 2.255l2.221 6.65c.226.677.793 1.123 1.423 1.123h.027c.64-.013 1.206-.484 1.414-1.179l.631-2.102.72 2.159c.227.676.793 1.122 1.424 1.122h.026c.641-.013 1.207-.484 1.415-1.179l1.995-6.65c.274-.912-.15-1.906-.945-2.22Z" fill="url(#e)"/><path d="M30.712 27.953c-.796-.313-1.663.172-1.936 1.084l-.63 2.102-.722-2.158c-.346-1.258-2.275-1.71-2.864.056l-.63 2.102-.722-2.158c-.3-.901-1.181-1.352-1.968-1.007-.786.345-1.179 1.354-.878 2.255l2.22 6.65c.227.677.793 1.123 1.424 1.123h.026c.641-.013 1.207-.484 1.415-1.179l.63-2.102.721 2.159c.227.676.793 1.122 1.424 1.122h.026c.641-.013 1.207-.484 1.415-1.179l1.995-6.65c.274-.912-.15-1.906-.946-2.22Z" fill="url(#f)"/><path d="M44.71 27.953c-.795-.313-1.662.172-1.936 1.084l-.63 2.102-.721-2.158c-.346-1.255-2.27-1.715-2.865.056l-.63 2.102-.721-2.158c-.3-.901-1.182-1.352-1.968-1.007-.786.345-1.18 1.354-.879 2.255l2.221 6.65c.226.677.793 1.123 1.423 1.123h.027c.64-.013 1.206-.484 1.415-1.179l.63-2.102.721 2.159c.226.676.793 1.122 1.423 1.122h.027c.64-.013 1.206-.484 1.415-1.179l1.994-6.65c.274-.912-.15-1.906-.945-2.22Z" fill="url(#g)"/><defs><linearGradient id="a" x1="-6.5" y1="-8.138" x2="63.185" y2="72.294" gradientUnits="userSpaceOnUse"><stop stop-color="#1C2D5A"/><stop offset="1" stop-color="#4FC3DD" stop-opacity=".96"/></linearGradient><linearGradient id="b" x1="5.734" y1="6.428" x2="10.494" y2="11.223" gradientUnits="userSpaceOnUse"><stop stop-color="#1C2D5A"/><stop offset="1" stop-color="#4FC3DD" stop-opacity=".96"/></linearGradient><linearGradient id="c" x1="11.969" y1="6.428" x2="16.729" y2="11.223" gradientUnits="userSpaceOnUse"><stop stop-color="#1C2D5A"/><stop offset="1" stop-color="#4FC3DD" stop-opacity=".96"/></linearGradient><linearGradient id="d" x1="18.494" y1="6.428" x2="23.253" y2="11.223" gradientUnits="userSpaceOnUse"><stop stop-color="#1C2D5A"/><stop offset="1" stop-color="#4FC3DD" stop-opacity=".96"/></linearGradient><linearGradient id="e" x1="4.824" y1="26.27" x2="18.082" y2="43.589" gradientUnits="userSpaceOnUse"><stop stop-color="#1C2D5A"/><stop offset="1" stop-color="#4FC3DD" stop-opacity=".96"/></linearGradient><linearGradient id="f" x1="18.826" y1="26.27" x2="32.084" y2="43.589" gradientUnits="userSpaceOnUse"><stop stop-color="#1C2D5A"/><stop offset="1" stop-color="#4FC3DD" stop-opacity=".96"/></linearGradient><linearGradient id="g" x1="32.824" y1="26.27" x2="46.082" y2="43.589" gradientUnits="userSpaceOnUse"><stop stop-color="#1C2D5A"/><stop offset="1" stop-color="#4FC3DD" stop-opacity=".96"/></linearGradient></defs></svg>
